X: 25517
T: Margaret's
R: waltz
M: 3/4
K: Amajor
A>F|:E3 FA>B|c4 Ac|BA F2 A2|B4 A>F|E3 FAB|c4 eA|c4 B2|
[1A4 AF:|2 A4 cd||e2 f2 g2|a2 g2 a2|f>e d2 f2|e3 A (3cBA|A3 B cd|
e2 c2 A2|f>e d2 c2|B4 cd|eE fF gG|aA gG fF|
eE dD (3cBA|B4 AF|E3 FAB|c4 eA|c4 B2|A4||

